assets/svg/1f508.svg

<svg xmlns="http://www.w3.org/2000/svg" viewBox="0 0 64 64" enable-background="new 0 0 64 64" xmlns:xlink="http://www.w3.org/1999/xlink"><path fill="#8b979e" d="M11.128,45H3.783C1.694,45,0,43.416,0,41.463V22.537c0-1.954,1.693-3.536,3.782-3.536h7.346V45z" id="0"/><use xlink:href="#0"/><path fill="#b0bdc6" d="M29.836,2.247c1.306-1.306-18.708,16.754-18.708,16.754V45c0,0,10.271,7.855,18.708,16.754V2.247z"/><g fill="#333"><path d="m33 25.454v13.09c3.863 0 6.996-2.932 6.996-6.545 0-3.617-3.133-6.548-6.996-6.548"/><path d="m33 62.52c0 .816-.709 1.48-1.584 1.48-.874 0-1.583-.664-1.583-1.48v-61.04c-.001-.818.708-1.481 1.582-1.481.875 0 1.584.663 1.584 1.481v61.04"/></g><path fill="#8b979e" d="m11.128 40.18h-7.345c-2.089 0-3.783-.996-3.783-2.227v-11.914c0-1.23 1.693-2.227 3.782-2.227h7.346v16.368"/><path fill="#b0bdc6" d="m11.128 40.18h-7.345c-2.089 0-3.783-.996-3.783-2.227v-11.914c0-1.23 1.693-2.227 3.782-2.227h7.346v16.368"/><path fill="#dfe9ef" d="m29.836 13.27l-18.708 10.546v16.374l18.708 10.54z"/><path fill="#8b979e" d="m29.836 13.27h3.167v37.461h-3.167z"/><path fill="#333" d="m3.783 19h7.346v25.999h-7.346z"/></svg>

<svg xmlns="http://www.w3.org/2000/svg" width="64" height="64" viewBox="0 0 64 64"><path fill="#8B979E" d="M11.128 45H3.783C1.694 45 0 43.416 0 41.463V22.537c0-1.954 1.693-3.536 3.782-3.536h7.346V45z"/><path fill="#8B979E" d="M11.128 45H3.783C1.694 45 0 43.416 0 41.463V22.537c0-1.954 1.693-3.536 3.782-3.536h7.346V45z"/><path fill="#B0BDC6" d="M29.836 2.247C31.142.941 11.128 19.001 11.128 19.001V45s10.271 7.855 18.708 16.754V2.247z"/><path fill="#333" d="M33.004 25.454v13.093c3.863 0 6.996-2.932 6.996-6.545 0-3.617-3.133-6.548-6.996-6.548zM33.004 62.52c0 .816-.709 1.48-1.584 1.48-.874 0-1.583-.664-1.583-1.48V1.481C29.836.663 30.545 0 31.419 0c.875 0 1.584.663 1.584 1.481V62.52z"/><path fill="#8B979E" d="M11.128 40.184H3.783C1.694 40.184 0 39.188 0 37.957V26.043c0-1.23 1.693-2.227 3.782-2.227h7.346v16.368z"/><path fill="#B0BDC6" d="M11.128 40.184H3.783C1.694 40.184 0 39.188 0 37.957V26.043c0-1.23 1.693-2.227 3.782-2.227h7.346v16.368z"/><path fill="#DFE9EF" d="M29.836 13.27L11.128 23.816v16.37L29.836 50.73z"/><path fill="#8B979E" d="M29.836 13.27h3.167v37.461h-3.167z"/><path fill="#333" d="M3.783 19.001h7.346V45H3.783z"/></svg>
